X: 3
T: Jock Brown's 70th
Z: Sergei Ejov
S: https://thesession.org/tunes/10023#setting30876
R: hornpipe
M: 4/4
L: 1/8
K: Amix
|:e3 e- efed | cA A/A/A eAcA | g3 g- gfga | f3 f- fefg |
a2 ed e2 ed|cA A/A/A eAcA|GA A/A/A d2 dc|GAde d2 cd:|
|: a2 cd ecde | cdac decd | a2 cd ecde | cdac dgcd |
a2 cd ecde | cdac decA | GA A/A/A d2 dc |1 GAde d2 cd :|2 GAde d2 dc ||
|: A2 GA- AGAA | GAAG A2 dc | A2 GA- AGAA | GAde d2 dc |
A2 GA- AGAA | GAAG A2 dc | GAde d3 d-|1 dcde d2 dc :|2 dcde d2 cd ||
